X: 11037
T: GRAMMIES WALTZ
C: Bob McQuillen 13 April 2000
B: Bob's Note Book 11 #37
R: waltz
Z: 2020 John Chambers <jc:trillian.mit.edu>
M: 3/4
L: 1/4
K: D
A \
| d>ed | cAF | G>AB | AFD | G>AB | AFA | B>cd | e2 A |
| d>ed | cAF | G>AB | AFD | GAB | Adf | edc | d2 :|
|: d \
| c>Bc | Ade | f>gf | dAd | c>de | Ade | fg>f | e2 a/g/ |
| f>ef | dAF | G>AB | BA2 | d>fa | afd | Bec | d2 :|
%%begintext align
%% Not long ago
%% a very wonderful woman in my life passed away.
%% Virginia Richardson (Mrs. Robert) was Sarah Bath's
%% Grammie, Robbie's Mom, and a good friend to me
%% and a host of other people. We all loved her, and we
%% all miss her.
%%endtext

%%sep 1 1 500

%%sep 1 1 500

